images/types-item-1.svg

<svg width="39" height="44" viewBox="0 0 39 44" fill="none" xmlns="http://www.w3.org/2000/svg">
<path d="M7.21149 9.62492H27.0439C27.5597 8.93742 27.8435 8.07521 27.8289 7.18765C27.8128 6.20349 27.4467 5.29015 26.7982 4.64863C26.4452 4.29938 25.8905 3.87837 25.2527 3.87837C25.2129 3.87837 25.1731 3.87682 25.1336 3.87837C23.4786 3.94411 21.9204 3.21545 20.8572 1.88178C19.9902 0.79433 18.7502 0.170166 17.4549 0.170166C16.1517 0.170166 14.9066 0.800088 14.0389 1.89863C12.8528 3.40038 11.0597 4.14959 9.24216 3.90174C9.10855 3.88353 8.97197 3.87476 8.83624 3.87476C8.43047 3.87476 8.00558 4.06631 7.57338 4.44203C6.92745 5.00346 6.51688 5.82391 6.41717 6.74834C6.31472 7.69924 6.54956 8.65907 7.07857 9.40896L7.21149 9.62492Z" fill="#AB917A"/>
<path d="M14.6357 13.2291C14.6636 13.2291 14.6911 13.2344 14.7182 13.2344H29.4181C29.9049 13.2344 30.3009 12.7952 30.3009 12.246C30.3009 11.6969 29.9049 11.2578 29.4181 11.2578H6.84704C6.84674 11.2578 6.84643 11.2578 6.84613 11.2578C6.8459 11.2578 6.84567 11.2578 6.84544 11.2578H4.7936C4.30678 11.2578 3.91077 11.697 3.91077 12.246C3.91077 12.7952 4.30678 13.2344 4.7936 13.2344H14.5531C14.5803 13.2344 14.6078 13.2291 14.6357 13.2291Z" fill="#142245"/>
<path d="M26.3555 31.8829H28.4121V19.6865C28.4121 19.3773 28.2816 19.0862 28.0875 18.8667C28.0159 18.786 27.9222 18.7189 27.8355 18.6661C27.8316 18.6637 27.8224 18.6617 27.8185 18.6592C27.6737 18.5739 27.5311 18.5282 27.3627 18.5281C26.7967 18.5282 26.3555 19.0478 26.3555 19.6865V29.7397C26.3555 29.7849 26.3663 29.831 26.3663 29.8783C26.3663 29.9255 26.3555 29.9716 26.3555 30.0168V31.8829Z" fill="#96A4D3"/>
<path d="M29.1239 36.0078C28.7048 36.0078 28.4121 35.6293 28.4121 35.1565V33.5156H26.3555V35.1563C26.3555 35.6291 25.9715 36.0078 25.5524 36.0078H25.4393C24.2825 36.0078 23.3848 37.0742 23.3848 38.3793V38.9257C23.3848 38.9898 23.4062 39.0562 23.4062 39.1249C23.4062 39.1936 23.3848 39.2601 23.3848 39.3241V39.9609H31.7637V39.3137C31.7637 39.2528 31.7446 39.1898 31.7446 39.1249C31.7446 39.0599 31.7637 38.9969 31.7637 38.936V38.38C31.7637 38.3789 31.7846 38.3754 31.7847 38.3742C31.7832 37.0704 30.8634 36.0078 29.7074 36.0078H29.1239Z" fill="#96A4D3"/>
<path d="M13.8632 17.8344V14.9531H6.45386L7.64686 26.1058C11.1897 25.443 13.8632 21.9655 13.8632 17.8344Z" fill="#AB917A"/>
<path d="M34.5209 39.9609H33.2871V40.8006C33.2871 41.2735 32.9833 41.6797 32.5642 41.6797H22.5823C22.1632 41.6797 21.8613 41.2735 21.8613 40.8006V39.9609H21.0322L20.464 43.8281H35.0891L34.5209 39.9609Z" fill="#142245"/>
<path d="M24.832 34.3652V32.7389C24.832 32.7367 24.832 32.7345 24.832 32.7323V30.7656H8.15063L9.37974 42.1555C9.48357 43.1196 10.2142 43.8281 11.0794 43.8281H18.9253L19.6406 38.9683C19.7015 38.5553 20.0181 38.2422 20.3891 38.2422H21.8256C21.8721 36.3516 23.1562 34.7034 24.832 34.3652Z" fill="#142245"/>
<path d="M24.832 19.6864C24.832 18.1035 25.9545 16.8144 27.3574 16.8144C27.4262 16.8144 27.4822 16.8029 27.5499 16.809L27.7409 14.9531H15.3867V17.8344C15.3867 22.8326 12.1307 27.068 7.83301 27.8353L7.96616 29.0469H24.832V19.6864Z" fill="#142245"/>
</svg>

<svg width="39" height="44" fill="none" xmlns="http://www.w3.org/2000/svg"><path d="M7.211 9.625h19.833c.516-.688.8-1.55.785-2.437-.016-.985-.382-1.898-1.03-2.54-.354-.349-.909-.77-1.546-.77h-.12c-1.654.066-3.213-.663-4.276-1.996C19.99.794 18.75.17 17.455.17c-1.303 0-2.548.63-3.416 1.729-1.186 1.501-2.98 2.25-4.797 2.003a3.016 3.016 0 00-.406-.027c-.406 0-.83.191-1.263.567-.646.561-1.056 1.382-1.156 2.306-.102.951.133 1.911.662 2.661l.132.216z" fill="#AB917A"/><path d="M14.636 13.23c.028 0 .055.004.082.004h14.7c.487 0 .883-.439.883-.988 0-.55-.396-.988-.883-.988H4.794c-.487 0-.883.439-.883.988 0 .55.396.988.883.988h9.76c.026 0 .054-.005.082-.005z" fill="#142245"/><path d="M26.355 31.883h2.057V19.686c0-.309-.13-.6-.325-.82a1.113 1.113 0 00-.252-.2c-.003-.002-.013-.004-.017-.007a.865.865 0 00-.455-.13c-.566 0-1.008.519-1.008 1.157V29.74c0 .045.011.091.011.138 0 .047-.01.094-.01.139v1.866zm2.769 4.125c-.42 0-.712-.379-.712-.852v-1.64h-2.056v1.64c0 .473-.385.852-.804.852h-.113c-1.157 0-2.054 1.066-2.054 2.371v.547c0 .064.021.13.021.199s-.021.135-.021.2v.636h8.379v-.647c0-.061-.02-.124-.02-.19 0-.064.02-.127.02-.188v-.556l.02-.006c0-1.304-.92-2.366-2.077-2.366h-.583z" fill="#96A4D3"/><path d="M13.863 17.834v-2.88h-7.41l1.194 11.152c3.543-.663 6.216-4.14 6.216-8.272z" fill="#AB917A"/><path d="M34.52 39.96h-1.233v.84c0 .474-.304.88-.723.88h-9.982c-.419 0-.72-.407-.72-.88v-.84h-.83l-.568 3.868h14.625l-.568-3.867z" fill="#142245"/><path d="M24.832 34.365v-3.599H8.151l1.229 11.39c.104.964.834 1.672 1.7 1.672h7.845l.716-4.86c.06-.413.377-.726.748-.726h1.437c.046-1.89 1.33-3.539 3.006-3.877zm0-14.679c0-1.582 1.122-2.872 2.525-2.872.07 0 .125-.011.193-.005l.19-1.856H15.388v2.881c0 4.999-3.256 9.234-7.554 10.001l.133 1.212h16.866v-9.36z" fill="#142245"/></svg>
